!!!COM: des Prez, Josquin
!!!CDT: ~1450-1521/08/27
!!!OTL@@FRA: Bergerette savoysienne
!!!AGN: Chanson
!!!SCT: NJE 28.6
!!!SCA: New Josquin Edition 28.6
!!!voices: 4
**kern	**text	**text	**kern	**text	**text	**kern	**text	**text	**kern	**text	**text
*staff4	*	*	*staff3	*	*	*staff2	*	*	*staff1	*	*
*Ivox	*	*	*Ivox	*	*	*Ivox	*	*	*Ivox	*	*
*I"Bassus	*	*	*I"Tenor	*	*	*I"Altus	*	*	*I"Superius	*	*
*I'B	*	*	*I'T	*	*	*I'A	*	*	*I'S	*	*
*clefF4	*	*	*clefGv2	*	*	*clefGv2	*	*	*clefG2	*	*
*>[A,A,B]	*	*	*>[A,A,B]	*	*	*>[A,A,B]	*	*	*>[A,A,B]	*	*
*>norep[A,B]	*	*	*>norep[A,B]	*	*	*>norep[A,B]	*	*	*>norep[A,B]	*	*
*>A	*	*	*>A	*	*	*>A	*	*	*>A	*	*
*k[]	*	*	*k[]	*	*	*k[]	*	*	*k[]	*	*
*M2/1	*	*	*M2/1	*	*	*M2/1	*	*	*M2/1	*	*
*met(C|)	*	*	*met(C|)	*	*	*met(C|)	*	*	*met(C|)	*	*
=1-	=1-	=1-	=1-	=1-	=1-	=1-	=1-	=1-	=1-	=1-	=1-
0c	Ber-	Dy	0r	.	.	0c	Ber-	Dy	0r	.	.
=2	=2	=2	=2	=2	=2	=2	=2	=2	=2	=2	=2
1B	-ge-	moy	0r	.	.	1d	-ge-	moy	0r	.	.
1c	-ret-	se	.	.	.	1e	-ret-	se	.	.	.
=3	=3	=3	=3	=3	=3	=3	=3	=3	=3	=3	=3
1A	-te	vieulx	0r	.	.	1e	-te	vieulx	0r	.	.
2G\	sa-	es-	.	.	.	2e\	sa-	es-	.	.	.
[2c\	-voy-	-tre	.	.	.	[2e\	-voy-	-tre	.	.	.
=4	=4	=4	=4	=4	=4	=4	=4	=4	=4	=4	=4
4c\]	.	.	0c	Ber-	Dy	4e\]	.	.	0r	.	.
4B\	.	.	.	.	.	4d\	.	.	.	.	.
4A\	.	.	.	.	.	1c	-sien-	-mien-	.	.	.
4G\	.	.	.	.	.	.	.	.	.	.	.
1A	-sien-	mien-	.	.	.	.	.	.	.	.	.
.	.	.	.	.	.	4B\	.	.	.	.	.
.	.	.	.	.	.	4A/	.	.	.	.	.
=5	=5	=5	=5	=5	=5	=5	=5	=5	=5	=5	=5
1.G	-ne,	-ne,	1d	-ge-	moy	1B	-ne,	-ne,	0r	.	.
.	.	.	1e	-ret-	se	2r	.	.	.	.	.
2E\	sa-	es-	.	.	.	[2c\	sa-	es-	.	.	.
=6	=6	=6	=6	=6	=6	=6	=6	=6	=6	=6	=6
2A\	-voy-	-tre	1e	-te	vieulx	4c\]	.	.	0r	.	.
.	.	.	.	.	.	4d\	.	.	.	.	.
2.G\	-sien-	mien-	.	.	.	4e\	.	.	.	.	.
.	.	.	.	.	.	4f\	.	.	.	.	.
.	.	.	2e\	sa-	es-	2g\	-voy-	-tre	.	.	.
4F\	.	.	.	.	.	.	.	.	.	.	.
4E\	.	.	[2e\	-voy-	-tre	2c\	.	.	.	.	.
4D\	.	.	.	.	.	.	.	.	.	.	.
=7	=7	=7	=7	=7	=7	=7	=7	=7	=7	=7	=7
0C	-ne,	-ne,	4e\]	.	.	4g\	-sien-	mien-	0cc	Ber-	Dy
.	.	.	4d\	.	.	4f\	.	.	.	.	.
.	.	.	1c	-sien-	mien-	4e\	.	.	.	.	.
.	.	.	.	.	.	4d\	.	.	.	.	.
.	.	.	.	.	.	1c	.	.	.	.	.
.	.	.	4B\	.	.	.	.	.	.	.	.
.	.	.	4A/	.	.	.	.	.	.	.	.
=8	=8	=8	=8	=8	=8	=8	=8	=8	=8	=8	=8
0r	.	.	1B	-ne,	-ne,	2G/	.	.	1dd	-ge	moy
.	.	.	.	.	.	2B\	.	.	.	.	.
.	.	.	2r	.	.	1A	.	.	1ee	-ret-	se
.	.	.	[2c\	sa-	es-	.	.	.	.	.	.
=9	=9	=9	=9	=9	=9	=9	=9	=9	=9	=9	=9
0C	sa-	es-	4c\]	.	.	2G/	-ne,	-ne,	1ee	-te	vieulx
.	.	.	4d\	.	.	.	.	.	.	.	.
.	.	.	4e\	.	.	2.c\	sa-	es-	.	.	.
.	.	.	4f\	.	.	.	.	.	.	.	.
.	.	.	2g\	-voy-	-tre	.	.	.	2ee\	sa-	es-
.	.	.	.	.	.	4B\	.	.	.	.	.
.	.	.	2c\	.	.	4c\	.	.	[2ee\	-voy-	-tre
.	.	.	.	.	.	4d\	.	.	.	.	.
=10	=10	=10	=10	=10	=10	=10	=10	=10	=10	=10	=10
1c	-voy-	-tre	4g\	-sien-	mien-	4e\	-voy-	-tre	4ee\]	.	.
.	.	.	4f\	.	.	4f\	.	.	4dd\	.	.
.	.	.	4e\	.	.	1g	-sien-	mien-	1cc	-sien-	mien-
.	.	.	4d\	.	.	.	.	.	.	.	.
1A	-sien-	mien-	2.c\	.	.	.	.	.	.	.	.
.	.	.	.	.	.	2f#i\	.	.	4b\	.	.
.	.	.	4B\	.	.	.	.	.	4a/	.	.
=11	=11	=11	=11	=11	=11	=11	=11	=11	=11	=11	=11
0G	-ne,	-ne,	0d	-ne,	-ne,	0g	-ne,	-ne,	0b	-ne,	-ne,
=12	=12	=12	=12	=12	=12	=12	=12	=12	=12	=12	=12
1r	.	.	1.f	Qui	Je	0r	.	.	0r	.	.
[1F	Qui	Je	.	.	.	.	.	.	.	.	.
.	.	.	4e\	.	.	.	.	.	.	.	.
.	.	.	4d\	.	.	.	.	.	.	.	.
=13	=13	=13	=13	=13	=13	=13	=13	=13	=13	=13	=13
2F\]	.	.	2c\	gar-	te	0r	.	.	0r	.	.
2F\	gar-	te	2d\	.	.	.	.	.	.	.	.
1E	-des	don-	1G	-des	don-	.	.	.	.	.	.
=14	=14	=14	=14	=14	=14	=14	=14	=14	=14	=14	=14
1.D	mou-	-ray	1.A	mou-	-ray,	1.f	Qui	Je	0r	.	.
4C/	.	.	2B\	.	.	2f\	gar-	te	.	.	.
4D\	.	.	.	.	.	.	.	.	.	.	.
=15	=15	=15	=15	=15	=15	=15	=15	=15	=15	=15	=15
1.C	-tons	ung	1c	-tons,	.	1e	-des	don-	0r	.	.
.	.	.	[1f	qui	je	[1d	mou-	-ray	.	.	.
4BB/	.	.	.	.	.	.	.	.	.	.	.
4C/	.	.	.	.	.	.	.	.	.	.	.
=16	=16	=16	=16	=16	=16	=16	=16	=16	=16	=16	=16
2BB/	aux	sou-	2f\]	.	.	2d\]	.	.	0r	.	.
4C/	.	.	2f\	gar-	te	4c\	.	.	.	.	.
4BB/	.	.	.	.	.	4d\	.	.	.	.	.
1C	praz,	-las,	1e	-des	don-	[1c	-tons	ung	.	.	.
=17	=17	=17	=17	=17	=17	=17	=17	=17	=17	=17	=17
0r	.	.	1.d	mou-	-ray	2c\]	.	.	1.ff	Qui	Je
.	.	.	.	.	.	4B\	.	.	.	.	.
.	.	.	.	.	.	4c\	.	.	.	.	.
.	.	.	.	.	.	2B\	aux	sou-	.	.	.
.	.	.	4c\	.	.	4c\	.	.	2ff\	gar-	te
.	.	.	4d\	.	.	4B\	.	.	.	.	.
=18	=18	=18	=18	=18	=18	=18	=18	=18	=18	=18	=18
0r	.	.	1.c	-tons	ung	1c	praz,	-las,	1ee	-des	don-
.	.	.	.	.	.	[1g	aux	sou-	[1dd	mou-	-ray
.	.	.	4B\	.	.	.	.	.	.	.	.
.	.	.	4c\	.	.	.	.	.	.	.	.
=19	=19	=19	=19	=19	=19	=19	=19	=19	=19	=19	=19
1G	mou-	ung	2B\	aux	sou-	1g]	.	.	2dd\]	.	.
.	.	.	4c\	.	.	.	.	.	4cc\	.	.
.	.	.	4B\	.	.	.	.	.	4dd\	.	.
1A	-tons	.	1c	.	.	1f	.	.	[1cc	-tons	ung
=20	=20	=20	=20	=20	=20	=20	=20	=20	=20	=20	=20
0G	aux	sou-	0d	praz,	-las.	0g	.	.	2cc\]	.	.
.	.	.	.	.	.	.	.	.	4b\	.	.
.	.	.	.	.	.	.	.	.	4cc\	.	.
.	.	.	.	.	.	.	.	.	2b\	aux	sou-
.	.	.	.	.	.	.	.	.	4cc\	.	.
.	.	.	.	.	.	.	.	.	4b\	.	.
=21	=21	=21	=21	=21	=21	=21	=21	=21	=21	=21	=21
0C;l	praz,	las.	0c;l	.	.	0e;l	praz,	-las.	0cc;l	praz,	-las.
=22:|!	=22:|!	=22:|!	=22:|!	=22:|!	=22:|!	=22:|!	=22:|!	=22:|!	=22:|!	=22:|!	=22:|!
*>B	*	*	*>B	*	*	*>B	*	*	*>B	*	*
0r	.	.	1e	Je	.	1c	Je	.	0r	.	.
.	.	.	1e	te	.	1c	te	.	.	.	.
=23	=23	=23	=23	=23	=23	=23	=23	=23	=23	=23	=23
0r	.	.	1d	don-	.	1B	don-	.	0r	.	.
.	.	.	1g	-ray	.	1G	-ray	.	.	.	.
=24	=24	=24	=24	=24	=24	=24	=24	=24	=24	=24	=24
0r	.	.	1g	ung	.	1A	ung	.	0r	.	.
.	.	.	1f#i	sou-	.	1A	sou-	.	.	.	.
=25	=25	=25	=25	=25	=25	=25	=25	=25	=25	=25	=25
0C	ung	.	[0g	-las,	.	1G	-las,	.	1ee	Je	.
.	.	.	.	.	.	1c	ung	.	1ee	te	.
=26	=26	=26	=26	=26	=26	=26	=26	=26	=26	=26	=26
1G	sou-	.	0g]	.	.	1B	sou-	.	1dd	don-	.
1E	.	.	.	.	.	1G	.	.	1gg	-ray	.
=27	=27	=27	=27	=27	=27	=27	=27	=27	=27	=27	=27
0D	.	.	0a	sou-	.	0d	-las,	.	1gg	ung	.
.	.	.	.	.	.	.	.	.	1ff#i	sou-	.
=28	=28	=28	=28	=28	=28	=28	=28	=28	=28	=28	=28
0G	-las	.	0g	-las	.	2r	.	.	0gg	-las	.
.	.	.	.	.	.	2.G/	Et	.	.	.	.
.	.	.	.	.	.	4A/	.	.	.	.	.
.	.	.	.	.	.	4B\	.	.	.	.	.
.	.	.	.	.	.	4G/	.	.	.	.	.
=29	=29	=29	=29	=29	=29	=29	=29	=29	=29	=29	=29
1.A	Et	.	1.f	Et	.	1.c	.	.	0r	.	.
2A\	ung	.	2f\	ung	.	2c\	ung	.	.	.	.
=30	=30	=30	=30	=30	=30	=30	=30	=30	=30	=30	=30
1A	pe-	.	1f	pe-	.	1c	pe-	.	0r	.	.
[1G	-tit	.	[1e	-tit	.	[1B	-tit	.	.	.	.
=31	=31	=31	=31	=31	=31	=31	=31	=31	=31	=31	=31
1G]	.	.	2e\]	.	.	2B\]	.	.	0r	.	.
.	.	.	2d\	.	.	2A/	.	.	.	.	.
1F	chap-	.	[1d	chap-	.	[1A	chap-	.	.	.	.
=32	=32	=32	=32	=32	=32	=32	=32	=32	=32	=32	=32
0E	-pe-	.	1d]	.	.	1A]	.	.	0r	.	.
.	.	.	1c#i	-pe-	.	1G	-pe-	.	.	.	.
=33	=33	=33	=33	=33	=33	=33	=33	=33	=33	=33	=33
0D	-ron;	.	1d	-ron,	.	1.A	-ron,	.	1.ff	Et	.
.	.	.	[1a	pe-	.	.	.	.	.	.	.
.	.	.	.	.	.	4B\	ung	.	2ff\	ung	.
.	.	.	.	.	.	4c\	.	.	.	.	.
=34	=34	=34	=34	=34	=34	=34	=34	=34	=34	=34	=34
0r	.	.	1a]	.	.	1d	pe-	.	1ff	pe-	.
.	.	.	[1g	-tit	.	1e	-tit	.	[1ee	-tit	.
=35	=35	=35	=35	=35	=35	=35	=35	=35	=35	=35	=35
0r	.	.	1g]	.	.	1c	chap-	.	2ee\]	.	.
.	.	.	.	.	.	.	.	.	2dd\	.	.
.	.	.	1f	chap-	.	1d	-pe-	.	[1dd	chap-	.
=36	=36	=36	=36	=36	=36	=36	=36	=36	=36	=36	=36
1r	.	.	0e	-pe-	.	0A	-ron;	.	1dd]	.	.
1A	Et	.	.	.	.	.	.	.	1cc#i	-pe-	.
=37	=37	=37	=37	=37	=37	=37	=37	=37	=37	=37	=37
1B	dy	.	0d	-ron;	.	1r	.	.	1dd	-ron;	.
1B	moy	.	.	.	.	1d	Et	.	2r	.	.
.	.	.	.	.	.	.	.	.	2dd\	Et	.
=38	=38	=38	=38	=38	=38	=38	=38	=38	=38	=38	=38
1.c	se	.	1r	.	.	2c\	dy	.	1.ee	dy	.
.	.	.	.	.	.	2.e\	.	.	.	.	.
.	.	.	2r	.	.	.	.	.	.	.	.
.	.	.	.	.	.	4f\	.	.	.	.	.
2B\	tu	.	2d\	Et	.	2g\	moy	.	2dd\	moy	.
=39	=39	=39	=39	=39	=39	=39	=39	=39	=39	=39	=39
1A	m'ai-	.	1.e	dy	.	4c/	se	.	1cc	se	.
.	.	.	.	.	.	4d\	.	.	.	.	.
.	.	.	.	.	.	4e\	.	.	.	.	.
.	.	.	.	.	.	4f\	.	.	.	.	.
1G	-me-	.	.	.	.	1g	tu	.	1b	tu	.
.	.	.	2d\	moy	.	.	.	.	.	.	.
=40	=40	=40	=40	=40	=40	=40	=40	=40	=40	=40	=40
1A	-ras,	.	1c	se	.	2e\	m'ai-	.	2cc\	m'ai-	.
.	.	.	.	.	.	2f\	-me-	.	2cc\	-me-	.
2r	.	.	1B	tu	.	2d\	-ras,	.	1dd	-ras,	.
2G\	et	.	.	.	.	2g\	tu	.	.	.	.
=41	=41	=41	=41	=41	=41	=41	=41	=41	=41	=41	=41
1A	dy	.	2c\	m'ai-	.	2e\	m'ai-	.	1r	.	.
.	.	.	2c\	-me-	.	2f\	-me-	.	.	.	.
1B	.	.	1d	-ras,	.	2d\	-ras,	.	2r	.	.
.	.	.	.	.	.	[2g\	et	.	2dd\	et	.
=42	=42	=42	=42	=42	=42	=42	=42	=42	=42	=42	=42
1.c	.	.	1r	.	.	4g\]	.	.	1.ee	dy	.
.	.	.	.	.	.	4f\	.	.	.	.	.
.	.	.	.	.	.	4e\	dy	.	.	.	.
.	.	.	.	.	.	4d\	.	.	.	.	.
.	.	.	2r	.	.	2c\	moy	.	.	.	.
2B\	moy	.	2d\	et	.	2G/	.	.	2dd\	moy	.
=43	=43	=43	=43	=43	=43	=43	=43	=43	=43	=43	=43
1A	se	.	1.e	d'y	.	4c\	se	.	1cc	se	.
.	.	.	.	.	.	4d\	.	.	.	.	.
.	.	.	.	.	.	4e\	.	.	.	.	.
.	.	.	.	.	.	4f\	.	.	.	.	.
1G	tu	.	.	.	.	1g	tu	.	1b	tu	.
.	.	.	2d\	moy	.	.	.	.	.	.	.
=44	=44	=44	=44	=44	=44	=44	=44	=44	=44	=44	=44
1A	m'ai-	.	1c	se	.	2e\	m'ai-	.	2cc\	-mai-	.
.	.	.	.	.	.	2c\	-me-	.	2cc\	-me-	.
1G	-me-	.	1B	tu	.	1g	-ras	.	1dd	-ras	.
=45	=45	=45	=45	=45	=45	=45	=45	=45	=45	=45	=45
1A	-ras	.	2c\	m'ai-	.	1e	Ou	.	0r	.	.
.	.	.	2c\	-me-	.	.	.	.	.	.	.
1D	.	.	1d	-ras	.	1f	.	.	.	.	.
=46	=46	=46	=46	=46	=46	=46	=46	=46	=46	=46	=46
1r	.	.	0r	.	.	2.d\	.	.	1.dd	Ou	.
.	.	.	.	.	.	4c\	.	.	.	.	.
[1G	Ou	.	.	.	.	2B\	.	.	.	.	.
.	.	.	.	.	.	2A/	par	.	2cc\	par	.
=47	=47	=47	=47	=47	=47	=47	=47	=47	=47	=47	=47
2G\]	.	.	1.g	Ou	.	1.G	la	.	2b\	la	.
2F\	par	.	.	.	.	.	.	.	2a/	me-	.
2E\	la	.	.	.	.	.	.	.	[1g	-ran-	.
2D\	me-	.	2f\	par	.	4A/	me-	.	.	.	.
.	.	.	.	.	.	4B\	.	.	.	.	.
=48	=48	=48	=48	=48	=48	=48	=48	=48	=48	=48	=48
0C	-ran-	.	2e\	la	.	1c	-ran-	.	2g/]	.	.
.	.	.	2d\	me-	.	.	.	.	4a/	.	.
.	.	.	.	.	.	.	.	.	4b\	.	.
.	.	.	1c	-ran-	.	[1g	-de ou	.	[1cc	.	.
=49	=49	=49	=49	=49	=49	=49	=49	=49	=49	=49	=49
0G	-de ou	.	0d	-de ou	.	0g]	.	.	2cc\]	.	.
.	.	.	.	.	.	.	.	.	4b\	.	.
.	.	.	.	.	.	.	.	.	4a/	.	.
.	.	.	.	.	.	.	.	.	1b	-de ou	.
=50	=50	=50	=50	=50	=50	=50	=50	=50	=50	=50	=50
1C	non,	.	0c	non,	.	1e	non,	.	1cc	non,	.
1c	.	.	.	.	.	2r	.	.	1cc	ou	.
.	.	.	.	.	.	2e\	ou	.	.	.	.
=51	=51	=51	=51	=51	=51	=51	=51	=51	=51	=51	=51
1r	.	.	0G	.	.	2.d\	.	.	1.dd	.	.
.	.	.	.	.	.	4c\	.	.	.	.	.
[1G	ou	.	.	.	.	2B\	.	.	.	.	.
.	.	.	.	.	.	2A/	par	.	2cc\	par	.
=52	=52	=52	=52	=52	=52	=52	=52	=52	=52	=52	=52
2G\]	.	.	1.g	ou	.	1.G	la	.	2b\	la	.
2F\	par	.	.	.	.	.	.	.	2a/	me-	.
2E\	la	.	.	.	.	.	.	.	[1g	-ran-	.
2D\	me-	.	2f\	par	.	4A/	me-	.	.	.	.
.	.	.	.	.	.	4B\	.	.	.	.	.
=53	=53	=53	=53	=53	=53	=53	=53	=53	=53	=53	=53
2C/	-ran-	.	2e\	la	.	1c	-ran-	.	2g/]	.	.
1c	.	.	2d\	me-	.	.	.	.	4a/	.	.
.	.	.	.	.	.	.	.	.	4b\	.	.
.	.	.	1c	-ran-	.	[1g	-de ou	.	[1cc	.	.
4B\	.	.	.	.	.	.	.	.	.	.	.
4A\	.	.	.	.	.	.	.	.	.	.	.
=54	=54	=54	=54	=54	=54	=54	=54	=54	=54	=54	=54
2G\	.	.	0d	-de ou	.	2g\]	.	.	2cc\]	.	.
2F\	.	.	.	.	.	2a\	.	.	4b\	.	.
.	.	.	.	.	.	.	.	.	4a/	.	.
1G	-de ou	.	.	.	.	1g	.	.	1b	-de ou	.
=55	=55	=55	=55	=55	=55	=55	=55	=55	=55	=55	=55
0C/l	non.	.	0cl	non.	.	0el	non.	.	0ccl	non.	.
==	==	==	==	==	==	==	==	==	==	==	==
*-	*-	*-	*-	*-	*-	*-	*-	*-	*-	*-	*-
!!!RDF**kern: l=long note in original notation
!!!RDF**kern: i=editorial accidental
!!!ENC: Jesse Rodin; 2011/07/27
!!!END: 2011/07/27/
!!!EED: Jesse Rodin
!!!EEV: 2011/08/08/
!!attribution-level@Jos: 1 (secure, core group [checkmark])
!!!ONB: Translated from MusicXML and edited on 2011/08/08/ by Craig Sapp
!!muse2ps: C^@{COM}\n@{SCT}^i2I150v75,75,75,120z18c160l2720
